;FLAVOR:Marlin
;TIME:10384
;Filament used: 13.9209m
;Layer height: 0.2
;MINX:39
;MINY:19
;MINZ:0.2
;MAXX:181
;MAXY:201
;MAXZ:9.2
;TARGET_MACHINE.NAME:Creality Ender-3 V3 SE
;Generated with Cura_SteamEngine 5.8.0
M82 ;absolute extrusion mode
M220 S100 ;Reset Feedrate
M221 S100 ;Reset Flowrate

G28 ;Home

M420 S1; Use saved mesh leveling data

G92 E0 ;Reset Extruder
G1 Z2.0 F3000 ;Move Z Axis up
G1 X-3 Y20 Z0.28 F5000.0 ;Move to start position
M190 S60 ; Set bed temperature and wait
M109 S200 ; Set hotend temperature and wait
G1 X-3 Y100.0 Z0.28 F1500.0 E15 ;Draw the first line
G1 X-2 Y100.0 Z0.28 F5000.0 ;Move to side a little
G1 X-2 Y20 Z0.28 F1500.0 E30 ;Draw the second line
G92 E0 ;Reset Extruder
G1 E-1.0000 F1800 ;Retract a bit
G1 Z2.0 F3000 ;Move Z Axis up
G1 E0.0000 F1800 

G92 E0
G92 E0
G1 F2400 E-0.8
;LAYER_COUNT:46
;LAYER:0
M107
G0 F9000 X40.621 Y24.277 Z0.2
;TYPE:SKIRT
G1 F2400 E0
G1 F1800 X41.164 Y23.469 E0.03238
G1 X41.731 Y22.765 E0.06244
G1 X42.456 Y22.013 E0.09719
G1 X43.192 Y21.376 E0.12956
G1 X43.924 Y20.846 E0.15962
G1 X44.821 Y20.311 E0.19436
G1 X45.699 Y19.89 E0.22674
G1 X46.612 Y19.548 E0.25917
G1 X47.549 Y19.289 E0.2915
G1 X48.516 Y19.111 E0.32421
G1 X49.655 Y19.015 E0.36222
G1 X50.33 Y19 E0.38468
G1 X79.878 Y19.001 E1.36745
G1 X80.629 Y19.015 E1.39243
G1 X81.6 Y19.078 E1.4248
G1 X82.564 Y19.225 E1.45723
G1 X83.5 Y19.455 E1.48929
G1 X86.361 Y20.293 E1.58844
G1 X88.75 Y20.915 E1.67055
G1 X91.234 Y21.487 E1.75533
G1 X93.724 Y21.987 E1.8398
G1 X96.171 Y22.408 E1.92239
G1 X98.694 Y22.767 E2.00715
G1 X101.136 Y23.044 E2.08889
G1 X103.706 Y23.266 E2.17468
G1 X106.156 Y23.405 E2.2563
G1 X108.72 Y23.478 E2.34162
G1 X111.21 Y23.478 E2.42443
G1 X113.744 Y23.407 E2.50875
G1 X116.228 Y23.269 E2.59149
G1 X118.799 Y23.051 E2.67731
G1 X121.259 Y22.771 E2.75966
G1 X123.743 Y22.418 E2.84311
G1 X126.223 Y21.994 E2.92679
G1 X128.684 Y21.502 E3.01026
G1 X131.17 Y20.93 E3.09511
G1 X133.56 Y20.31 E3.17723
G1 X136.569 Y19.436 E3.28145
G1 X137.517 Y19.209 E3.31387
G1 X138.41 Y19.075 E3.3439
G1 X139.273 Y19.015 E3.37268
G1 X139.93 Y19 E3.39453
G1 X169.436 Y19.001 E4.37591
G1 X170.169 Y19.012 E4.40029
G1 X171.141 Y19.069 E4.43267
G1 X172.104 Y19.215 E4.46507
G1 X173.05 Y19.444 E4.49744
G1 X173.974 Y19.756 E4.52988
G1 X174.864 Y20.148 E4.56223
G1 X175.687 Y20.599 E4.59344
G1 X176.526 Y21.16 E4.62701
G1 X177.23 Y21.726 E4.65705
G1 X177.983 Y22.451 E4.69182
G1 X178.62 Y23.187 E4.72419
G1 X179.15 Y23.918 E4.75423
G1 X179.686 Y24.815 E4.78898
G1 X180.108 Y25.693 E4.82138
G1 X180.45 Y26.605 E4.85378
G1 X180.71 Y27.543 E4.88615
G1 X180.888 Y28.51 E4.91885
G1 X180.985 Y29.655 E4.95707
G1 X181 Y30.33 E4.97953
G1 X180.999 Y189.4 E10.27022
G1 X180.988 Y190.163 E10.2956
G1 X180.931 Y191.136 E10.32802
G1 X180.786 Y192.099 E10.36041
G1 X180.557 Y193.045 E10.39278
G1 X180.246 Y193.969 E10.42521
G1 X179.854 Y194.86 E10.45758
G1 X179.386 Y195.712 E10.48991
G1 X178.864 Y196.493 E10.52116
G1 X178.231 Y197.278 E10.5547
G1 X177.606 Y197.929 E10.58471
G1 X176.817 Y198.617 E10.61953
G1 X176.057 Y199.167 E10.65073
G1 X175.19 Y199.684 E10.68431
G1 X174.312 Y200.106 E10.71671
G1 X173.401 Y200.448 E10.74907
G1 X172.462 Y200.709 E10.78149
G1 X171.496 Y200.887 E10.81416
G1 X170.345 Y200.985 E10.85258
G1 X169.67 Y201 E10.87504
G1 X50.564 Y200.999 E14.83652
G1 X49.831 Y200.988 E14.8609
G1 X48.859 Y200.931 E14.89328
G1 X47.896 Y200.785 E14.92568
G1 X46.95 Y200.556 E14.95805
G1 X46.026 Y200.244 E14.99049
G1 X45.136 Y199.852 E15.02284
G1 X44.313 Y199.401 E15.05405
G1 X43.474 Y198.84 E15.08762
G1 X42.77 Y198.274 E15.11766
G1 X42.017 Y197.549 E15.15243
G1 X41.38 Y196.813 E15.1848
G1 X40.85 Y196.082 E15.21483
G1 X40.314 Y195.185 E15.24959
G1 X39.892 Y194.307 E15.28199
G1 X39.55 Y193.395 E15.31439
G1 X39.29 Y192.457 E15.34676
G1 X39.112 Y191.488 E15.37953
G1 X39.014 Y190.309 E15.41888
G1 X39 Y189.658 E15.44053
G1 X39.001 Y30.525 E20.73332
G1 X39.012 Y29.825 E20.7566
G1 X39.07 Y28.852 E20.78902
G1 X39.216 Y27.889 E20.82142
G1 X39.446 Y26.943 E20.8538
G1 X39.759 Y26.02 E20.88622
G1 X40.151 Y25.13 E20.91856
G1 X40.621 Y24.277 E20.95095
G0 F9000 X40.953 Y24.5
G1 F1800 X41.476 Y23.72 E20.98219
G1 X42.043 Y23.016 E21.01225
G1 X42.718 Y22.315 E21.04462
G1 X43.427 Y21.7 E21.07584
G1 X44.159 Y21.17 E21.1059
G1 X44.995 Y20.671 E21.13828
G1 X45.84 Y20.264 E21.16947
G1 X46.719 Y19.933 E21.20071
G1 X47.622 Y19.682 E21.23189
G1 X48.55 Y19.51 E21.26328
G1 X49.689 Y19.414 E21.3013
G1 X50.33 Y19.4 E21.32262
G1 X79.871 Y19.401 E22.30516
G1 X80.604 Y19.414 E22.32954
G1 X81.54 Y19.473 E22.36073
G1 X82.469 Y19.614 E22.39199
G1 X83.388 Y19.839 E22.42346
G1 X86.253 Y20.678 E22.52275
G1 X88.66 Y21.305 E22.60548
G1 X91.144 Y21.877 E22.69026
G1 X93.649 Y22.38 E22.77524
G1 X96.115 Y22.804 E22.85846
G1 X98.638 Y23.163 E22.94322
G1 X101.102 Y23.443 E23.0257
G1 X103.672 Y23.664 E23.11149
G1 X106.145 Y23.805 E23.19388
G1 X108.709 Y23.878 E23.27919
G1 X111.221 Y23.878 E23.36274
G1 X113.755 Y23.807 E23.44706
G1 X116.262 Y23.667 E23.53057
G1 X118.833 Y23.449 E23.61639
G1 X121.315 Y23.167 E23.69947
G1 X123.799 Y22.814 E23.78292
G1 X126.297 Y22.387 E23.86721
G1 X128.774 Y21.892 E23.95122
G1 X131.26 Y21.32 E24.03607
G1 X133.672 Y20.694 E24.11895
G1 X136.663 Y19.825 E24.22255
G1 X137.576 Y19.605 E24.25378
G1 X138.469 Y19.471 E24.28381
G1 X139.282 Y19.415 E24.31092
G1 X139.93 Y19.4 E24.33248
G1 X169.43 Y19.401 E25.31365
G1 X170.146 Y19.411 E25.33747
G1 X171.082 Y19.465 E25.36865
G1 X172.011 Y19.604 E25.39989
G1 X172.923 Y19.823 E25.43109
G1 X173.813 Y20.122 E25.46232
G1 X174.672 Y20.499 E25.49352
G1 X175.495 Y20.95 E25.52473
G1 X176.275 Y21.472 E25.55595
G1 X176.979 Y22.038 E25.58599
G1 X177.681 Y22.713 E25.61838
G1 X178.296 Y23.422 E25.6496
G1 X178.826 Y24.153 E25.67963
G1 X179.326 Y24.989 E25.71203
G1 X179.734 Y25.834 E25.74324
G1 X180.065 Y26.712 E25.77445
G1 X180.317 Y27.616 E25.80566
G1 X180.489 Y28.544 E25.83705
G1 X180.586 Y29.689 E25.87527
G1 X180.6 Y30.33 E25.8966
G1 X180.599 Y189.395 E31.18712
G1 X180.589 Y190.14 E31.2119
G1 X180.535 Y191.077 E31.24312
G1 X180.397 Y192.006 E31.27436
G1 X180.178 Y192.918 E31.30555
G1 X179.88 Y193.808 E31.33677
G1 X179.503 Y194.668 E31.368
G1 X179.053 Y195.49 E31.39917
G1 X178.531 Y196.271 E31.43041
G1 X177.942 Y197.001 E31.46161
G1 X177.317 Y197.652 E31.49163
G1 X176.582 Y198.293 E31.52406
G1 X175.822 Y198.843 E31.55527
G1 X175.016 Y199.324 E31.58648
G1 X174.171 Y199.732 E31.61769
G1 X173.293 Y200.063 E31.6489
G1 X172.389 Y200.316 E31.68012
G1 X171.462 Y200.488 E31.71148
G1 X170.311 Y200.586 E31.7499
G1 X169.67 Y200.6 E31.77123
G1 X50.57 Y200.599 E35.73251
G1 X49.854 Y200.589 E35.75633
G1 X48.918 Y200.535 E35.78751
G1 X47.989 Y200.396 E35.81875
G1 X47.077 Y200.177 E35.84995
G1 X46.187 Y199.878 E35.88118
G1 X45.328 Y199.501 E35.91238
G1 X44.505 Y199.05 E35.94359
G1 X43.725 Y198.528 E35.97481
G1 X43.021 Y197.962 E36.00485
G1 X42.319 Y197.287 E36.03724
G1 X41.704 Y196.578 E36.06846
G1 X41.174 Y195.847 E36.09849
G1 X40.674 Y195.011 E36.13089
G1 X40.266 Y194.166 E36.1621
G1 X39.935 Y193.288 E36.19331
G1 X39.683 Y192.384 E36.22452
G1 X39.511 Y191.455 E36.25594
G1 X39.413 Y190.276 E36.29529
G1 X39.4 Y189.658 E36.31585
G1 X39.401 Y30.531 E41.60844
G1 X39.411 Y29.848 E41.63116
G1 X39.466 Y28.911 E41.66238
G1 X39.605 Y27.983 E41.69359
G1 X39.825 Y27.071 E41.72479
G1 X40.125 Y26.181 E41.75603
G1 X40.502 Y25.322 E41.78723
G1 X40.953 Y24.5 E41.81841
G0 F9000 X41.286 Y24.722
G1 F1800 X41.788 Y23.971 E41.84846
G1 X42.355 Y23.267 E41.87852
G1 X42.981 Y22.617 E41.90854
G1 X43.662 Y22.024 E41.93857
G1 X44.394 Y21.494 E41.96863
G1 X45.169 Y21.031 E41.99866
G1 X45.982 Y20.638 E42.02869
G1 X46.827 Y20.318 E42.05874
G1 X47.696 Y20.075 E42.08875
G1 X48.584 Y19.909 E42.1188
G1 X49.723 Y19.813 E42.15682
G1 X50.33 Y19.8 E42.17701
G1 X79.864 Y19.801 E43.15932
G1 X80.579 Y19.813 E43.1831
G1 X81.481 Y19.869 E43.21316
G1 X82.374 Y20.003 E43.24319
G1 X83.276 Y20.223 E43.27407
G1 X86.145 Y21.063 E43.3735
G1 X88.57 Y21.695 E43.45685
G1 X91.054 Y22.267 E43.54163
G1 X93.574 Y22.773 E43.62712
G1 X96.059 Y23.2 E43.71098
G1 X98.582 Y23.559 E43.79574
G1 X101.068 Y23.842 E43.87896
G1 X103.638 Y24.062 E43.96475
G1 X106.134 Y24.205 E44.04791
G1 X108.698 Y24.278 E44.13322
G1 X111.232 Y24.278 E44.2175
G1 X113.766 Y24.207 E44.30182
G1 X116.296 Y24.065 E44.3861
G1 X118.867 Y23.847 E44.47192
G1 X121.371 Y23.563 E44.55573
G1 X123.855 Y23.21 E44.63918
G1 X126.371 Y22.78 E44.72408
G1 X128.864 Y22.282 E44.80863
G1 X131.35 Y21.71 E44.89348
G1 X133.779 Y21.079 E44.97695
G1 X136.757 Y20.214 E45.08009
G1 X137.635 Y20.001 E45.11014
G1 X138.528 Y19.867 E45.14017
G1 X139.291 Y19.815 E45.16561
G1 X139.93 Y19.8 E45.18687
G1 X169.425 Y19.801 E46.16788
G1 X170.123 Y19.81 E46.1911
G1 X171.024 Y19.861 E46.22111
G1 X171.918 Y19.993 E46.25117
G1 X172.796 Y20.202 E46.28119
G1 X173.653 Y20.489 E46.31125
G1 X174.48 Y20.85 E46.34126
G1 X175.273 Y21.283 E46.37131
G1 X176.024 Y21.784 E46.40134
G1 X176.728 Y22.35 E46.43138
G1 X177.379 Y22.976 E46.46142
G1 X177.972 Y23.657 E46.49145
G1 X178.502 Y24.388 E46.52148
G1 X178.966 Y25.163 E46.55153
G1 X179.36 Y25.976 E46.58158
G1 X179.68 Y26.82 E46.6116
G1 X179.924 Y27.69 E46.64165
G1 X180.09 Y28.578 E46.6717
G1 X180.187 Y29.723 E46.70992
G1 X180.2 Y30.33 E46.73011
G1 X180.199 Y189.39 E52.02047
G1 X180.19 Y190.117 E52.04465
G1 X180.139 Y191.019 E52.0747
G1 X180.008 Y191.913 E52.10475
G1 X179.799 Y192.791 E52.13477
G1 X179.513 Y193.648 E52.16482
G1 X179.152 Y194.476 E52.19486
G1 X178.72 Y195.268 E52.22487
G1 X178.219 Y196.02 E52.25492
G1 X177.653 Y196.724 E52.28496
G1 X177.028 Y197.375 E52.31498
G1 X176.347 Y197.969 E52.34504
G1 X175.616 Y198.5 E52.37509
G1 X174.842 Y198.964 E52.4051
G1 X174.029 Y199.358 E52.43515
G1 X173.185 Y199.678 E52.46517
G1 X172.315 Y199.923 E52.49523
G1 X171.428 Y200.089 E52.52525
G1 X170.277 Y200.187 E52.56367
G1 X169.67 Y200.2 E52.58386
G1 X50.575 Y200.199 E56.54498
G1 X49.877 Y200.19 E56.56819
G1 X48.976 Y200.139 E56.59821
G1 X48.082 Y200.007 E56.62827
G1 X47.204 Y199.798 E56.65829
G1 X46.347 Y199.511 E56.68835
G1 X45.52 Y199.15 E56.71836
G1 X44.727 Y198.717 E56.74841
G1 X43.976 Y198.216 E56.77844
G1 X43.272 Y197.65 E56.80848
G1 X42.621 Y197.024 E56.83852
G1 X42.028 Y196.343 E56.86855
G1 X41.498 Y195.612 E56.89858
G1 X41.034 Y194.837 E56.92863
G1 X40.64 Y194.024 E56.95868
G1 X40.32 Y193.18 E56.9887
G1 X40.076 Y192.31 E57.01875
G1 X39.91 Y191.422 E57.0488
G1 X39.813 Y190.267 E57.08735
G1 X39.8 Y189.658 E57.10761
G1 X39.801 Y30.536 E62.40003
G1 X39.81 Y29.871 E62.42215
G1 X39.862 Y28.969 E62.4522
G1 X39.994 Y28.076 E62.48222
G1 X40.204 Y27.198 E62.51225
G1 X40.491 Y26.341 E62.54231
G1 X40.853 Y25.514 E62.57233
G1 X41.286 Y24.722 E62.60235
G1 F2400 E61.80235
;MESH:iPhone6SPHolder-Body001Pocket.stl
G0 F9000 X56.928 Y40.551
G0 X61.87 Y46.445
;TYPE:WALL-INNER
G1 F2400 E62.60235
G1 F1800 X61.456 Y46.54 E62.61648
G1 X61.03 Y46.588 E62.63074
G1 X60.62 Y46.595 E62.64438
G1 X60.146 Y46.562 E62.66018
G1 X59.61 Y46.438 E62.67848
G1 X59.274 Y46.326 E62.69026
G1 X58.908 Y46.161 E62.70361
G1 X58.503 Y45.929 E62.71914
G1 X58.211 Y45.721 E62.73106
G1 X57.909 Y45.457 E62.7444
G1 X57.589 Y45.11 E62.7601
G1 X57.282 Y44.694 E62.7773
G1 X57.07 Y44.311 E62.79186
G1 X56.842 Y43.762 E62.81163
G1 X56.724 Y43.296 E62.82762
G1 X56.668 Y42.883 E62.84148
G1 X56.652 Y42.527 E62.85333
G1 X56.668 Y42.117 E62.86698
G1 X56.735 Y41.661 E62.88231
G1 X56.869 Y41.166 E62.89937
G1 X57.115 Y40.591 E62.92017
G1 X57.382 Y40.16 E62.93703
G1 X57.623 Y39.848 E62.95014
G1 X57.913 Y39.539 E62.96424
G1 X58.161 Y39.319 E62.97526
G1 X58.499 Y39.07 E62.98923
G1 X58.904 Y38.835 E63.0048
G1 X59.282 Y38.67 E63.01852
G1 X59.606 Y38.562 E63.02988
G1 X60.044 Y38.456 E63.04487
G1 X60.466 Y38.408 E63.05899
G1 X60.878 Y38.401 E63.0727
G1 X61.29 Y38.434 E63.08645
G1 X61.679 Y38.508 E63.09962
G1 X62.088 Y38.621 E63.11373
G1 X62.461 Y38.771 E63.1271
G1 X62.825 Y38.963 E63.14079
G1 X63.165 Y39.185 E63.15429
G1 X63.577 Y39.52 E63.17195
G1 X63.912 Y39.887 E63.18848
G1 X64.214 Y40.298 E63.20545
G1 X64.458 Y40.748 E63.22247
G1 X64.601 Y41.092 E63.23486
G1 X64.717 Y41.46 E63.2477
G1 X64.824 Y42.016 E63.26653
G1 X64.85 Y42.639 E63.28727
G1 X64.804 Y43.124 E63.30347
G1 X64.728 Y43.485 E63.31574
G1 X64.614 Y43.861 E63.32881
G1 X64.408 Y44.367 E63.34698
G1 X64.125 Y44.829 E63.365
G1 X63.867 Y45.162 E63.37901
G1 X63.548 Y45.501 E63.39449
G1 X63.105 Y45.86 E63.41346
G1 X62.647 Y46.135 E63.43122
G1 X62.252 Y46.315 E63.44566
G1 X61.87 Y46.445 E63.45908
G1 F2400 E62.65908
G0 F9000 X61.487 Y46.718
G0 X62.112 Y83.438
G0 X62.252 Y91.315
G1 F2400 E63.45908
G1 F1800 X61.87 Y91.445 E63.4725
G1 X61.456 Y91.54 E63.48663
G1 X61.03 Y91.588 E63.50089
G1 X60.62 Y91.595 E63.51453
G1 X60.146 Y91.562 E63.53033
G1 X59.61 Y91.438 E63.54863
G1 X59.274 Y91.326 E63.56041
G1 X58.908 Y91.161 E63.57376
G1 X58.503 Y90.929 E63.58929
G1 X58.211 Y90.721 E63.60121
G1 X57.909 Y90.457 E63.61455
G1 X57.589 Y90.11 E63.63025
G1 X57.282 Y89.694 E63.64745
G1 X57.07 Y89.311 E63.66201
G1 X56.842 Y88.762 E63.68178
G1 X56.724 Y88.296 E63.69777
G1 X56.668 Y87.883 E63.71163
G1 X56.652 Y87.527 E63.72348
G1 X56.668 Y87.117 E63.73713
G1 X56.735 Y86.661 E63.75246
G1 X56.869 Y86.166 E63.76952
G1 X57.115 Y85.591 E63.79032
G1 X57.382 Y85.16 E63.80718
G1 X57.623 Y84.848 E63.82029
G1 X57.913 Y84.539 E63.83439
G1 X58.207 Y84.282 E63.84738
G1 X58.55 Y84.037 E63.8614
G1 X58.904 Y83.835 E63.87495
G1 X59.282 Y83.67 E63.88867
G1 X59.606 Y83.562 E63.90003
G1 X60.076 Y83.452 E63.91608
G1 X60.466 Y83.408 E63.92914
G1 X60.878 Y83.401 E63.94284
G1 X61.257 Y83.428 E63.95548
G1 X61.67 Y83.505 E63.96945
G1 X62.055 Y83.609 E63.98272
G1 X62.432 Y83.757 E63.99619
G1 X62.825 Y83.963 E64.01095
G1 X63.165 Y84.185 E64.02445
G1 X63.544 Y84.487 E64.04057
G1 X63.873 Y84.84 E64.05662
G1 X64.192 Y85.261 E64.07419
G1 X64.43 Y85.69 E64.0905
G1 X64.609 Y86.116 E64.10587
G1 X64.717 Y86.46 E64.11787
G1 X64.824 Y87.016 E64.1367
G1 X64.85 Y87.639 E64.15744
G1 X64.804 Y88.124 E64.17364
G1 X64.728 Y88.485 E64.18591
G1 X64.614 Y88.861 E64.19898
G1 X64.408 Y89.367 E64.21715
G1 X64.125 Y89.829 E64.23517
G1 X63.867 Y90.162 E64.24918
G1 X63.548 Y90.501 E64.26466
G1 X63.105 Y90.86 E64.28363
G1 X62.647 Y91.135 E64.3014
G1 X62.252 Y91.315 E64.31583
G1 F2400 E63.51583
G0 F9000 X62.766 Y91.182
G0 X62.284 Y91.496
G0 X62.112 Y128.438
G0 X62.647 Y136.135
G1 F2400 E64.31583
G1 F1800 X62.252 Y136.315 E64.33027
G1 X61.87 Y136.445 E64.34369
G1 X61.456 Y136.54 E64.35782
G1 X61.03 Y136.588 E64.37208
G1 X60.62 Y136.595 E64.38572
G1 X60.146 Y136.562 E64.40152
G1 X59.61 Y136.438 E64.41982
G1 X59.274 Y136.326 E64.4316
G1 X58.908 Y136.161 E64.44495
G1 X58.503 Y135.929 E64.46047
G1 X58.211 Y135.721 E64.4724
G1 X57.909 Y135.457 E64.48574
G1 X57.589 Y135.11 E64.50144
G1 X57.282 Y134.694 E64.51864
G1 X57.07 Y134.311 E64.5332
G1 X56.842 Y133.762 E64.55297
G1 X56.724 Y133.296 E64.56896
G1 X56.668 Y132.883 E64.58282
G1 X56.652 Y132.527 E64.59467
G1 X56.668 Y132.117 E64.60832
G1 X56.735 Y131.661 E64.62365
G1 X56.869 Y131.166 E64.6407
G1 X57.115 Y130.591 E64.6615
G1 X57.382 Y130.16 E64.67837
G1 X57.623 Y129.848 E64.69148
G1 X57.913 Y129.539 E64.70557
G1 X58.207 Y129.282 E64.71856
G1 X58.55 Y129.037 E64.73258
G1 X58.904 Y128.835 E64.74614
G1 X59.282 Y128.67 E64.75986
G1 X59.606 Y128.562 E64.77122
G1 X60.076 Y128.452 E64.78727
G1 X60.466 Y128.408 E64.80032
G1 X60.878 Y128.401 E64.81403
G1 X61.257 Y128.428 E64.82667
G1 X61.67 Y128.505 E64.84064
G1 X62.055 Y128.609 E64.8539
G1 X62.432 Y128.757 E64.86737
G1 X62.825 Y128.963 E64.88213
G1 X63.165 Y129.185 E64.89564
G1 X63.544 Y129.487 E64.91176
G1 X63.873 Y129.84 E64.92781
G1 X64.192 Y130.261 E64.94537
G1 X64.43 Y130.69 E64.96169
G1 X64.609 Y131.116 E64.97706
G1 X64.717 Y131.46 E64.98905
G1 X64.824 Y132.016 E65.00788
G1 X64.85 Y132.639 E65.02862
G1 X64.804 Y133.124 E65.04483
G1 X64.728 Y133.485 E65.0571
G1 X64.614 Y133.861 E65.07017
G1 X64.408 Y134.367 E65.08834
G1 X64.125 Y134.829 E65.10636
G1 X63.867 Y135.162 E65.12037
G1 X63.548 Y135.501 E65.13585
G1 X63.105 Y135.86 E65.15481
G1 X62.647 Y136.135 E65.17258
G1 F2400 E64.37258
G0 F9000 X62.284 Y136.496
G0 X62.859 Y173.774
